X:565
T:Molloy's Reel
T:Molloy's Favourite
C:Paddy Killoran
R:reel
Z:id:hn-reel-565
M:C|
K:D
d2Ad fdAF|GFEF GABc|d2Ad fdAF|GBAG FDD2|
dcde fdAF|GFEF GABc|d2Ad fdAF|GBAG FDD2||
fggf gaag|fgaf gfeg|fggf gaag|f2eg fddc|
dfaf gbag|fgaf gfeg|fdec dcBA|^GABc defe||
